X: 130
T: No_56_Song_of_the_Speaker.krn
%%abc-version 2.0
%%abcx-abcm2ps-target-version 5.9.1 (29 Sep 2008)
%%abc-creator hum2abc beta
%%abcx-conversion-date 2020/08/10 18:54:57
%%gracespace 0 6 6
%%humdrum-veritas 1519885016
%%humdrum-veritas-data 1253282244
%%linebreak <none>
%%barnumbers 0
L: 1/4
M: 3/4
%%staves {1 2}
V: 1 clef=bass
V: 2 clef=bass
K: D
[V:1] D [I:setbarnb 1]| 
[V:2] z | 
[V:1] F2E | 
[V:2] !accent!G,,/G,,/ !accent!G,,/G,,/ !accent!G,,/G,,/ | 
[V:1] EEE | 
[V:2] z3 | 
[V:1] E2D | 
[V:2] z3 | 
[V:1] D3- | 
[V:2] z3 | 
[V:1] D2D | 
[V:2] z3 | 
[V:1] F2E | 
[V:2] z3 | 
[V:1] EEE | 
[V:2] z3 | 
[V:1] E2D | 
[V:2] z3 | 
[V:1] D3- | 
[V:2] z3 | 
[V:1] D2D ||  
[V:2] z3 ||  
[V:1] [M:2/4]E2 ||  
[V:2] [M:2/4]z2 ||  
[V:1] [M:3/4]EDC | 
[V:2] [M:3/4]z3 | 
[V:1] DD2 | 
[V:2] z3 | 
[V:1]  [K:F] DA,G, | 
[V:2]  [K:F] z3 | 
[V:1] DG,2 | 
[V:2] z3 | 
[V:1] F,3 | 
[V:2] z3 | 
[V:1] F,F,2 | 
[V:2] z3 | 
[V:1] G,2F, | 
[V:2] z3 | 
[V:1] F,D,2 | 
[V:2] z3 | 
[V:1] D,3 | 
[V:2] z3 | 
[V:1] F,2D, ||  
[V:2] z3 ||  
[V:1] [M:2/4]F,2 ||  
[V:2] [M:2/4]z2 ||  
[V:1] [M:3/4]D,2-D,/D,/ | 
[V:2] [M:3/4]z3 | 
[V:1] D,3- | 
[V:2] z3 | 
[V:1] D,2z |]  
[V:2] z3 |]  


